X:1
T:Title
%%score { 1 | ( 2 3 ) }
L:1/8
M:6/8
K:G
V:1 treble nm="Grand Piano"
V:2 treble 
V:3 treble 
V:1
 z3 z2[Q:1/4=81] G/A/ | B>cB BAG |[M:5/8] G2 F G2 |[M:1/8] B/B/ |[M:3/4] A2 A [Fd]2 [Fd]/d/ | %5
 ^cB c [Fd]3 |[M:1/8] [Dd]/[Dd]/ |[M:3/4] B2 B B2 B/B/ |[M:5/8] [Ec]2 [Ec] [Ec]2 |[M:1/8] [Ec]/c/ | %10
[M:3/4] AA AA GA |[M:5/8] B2 B B2 |[M:1/8] B/B/ |[M:3/4] [Ge][Ge] [Ge] [Ge]2 [Ge] |[M:5/8] ddd d2 | %15
[M:1/8] d/d/ |[M:3/4] [Fc][Fc] [Fc][Fc] BA |[M:9/16] Bd/-d/BA3/2 |[M:5/16] [Fd]3/2D | %19
[M:3/4] GG G B2 G | [EGc][EGc] [EGc] [Ge]3 |[M:1/8] [Ge] | %22
[M:13/16] [Gd][Gd][B,G][DGB][DGB]3/2[CFA] |[M:5/8] [B,G]-[B,G]- [B,G]3 |] %24
V:2
 z3 z2 [G,B,]/[G,CG]/ | [G,DG]>[G,EG][G,DG] [G,DG][K:bass][G,CD][G,B,D] | %2
[M:5/8] [D,B,D]2 [D,A,D] [G,B,D]2 |[M:1/8] D/D/ |[M:3/4] [D,F,D]2 [D,F,D] [D,A,]2 z/[K:treble] F/ | %5
 [A,E]2 [A,G][K:bass] [D,A,]3 |[M:1/8] [F,A,] |[M:3/4] [G,D]2 [G,D] [G,D]2 D/D/ | %8
[M:5/8] [C,G,]2 [C,G,] [C,G,]2 |[M:1/8] z/ E/ | %10
[M:3/4] [D,F,D][D,F,D] [D,F,D][D,F,D] [D,G,B,][D,F,D] |[M:5/8][K:treble] [G,D]2 [G,D] [G,D]2 | %12
[M:1/8] [G,DG]/[G,DG]/ |[M:3/4][K:bass] [C,C][C,C] [C,C] [C,C]2 [C,C] | %14
[M:5/8][K:treble] [G,B,G][G,B,G][G,B,G] [G,B,G]2 |[M:1/8] G/G/ | %16
[M:3/4][K:bass] [D,A,][D,A,] [D,A,][D,A,] [D,G,D][D,F,D] | %17
[M:9/16] [G,D][G,B,D]/-[G,B,D]/[G,D][D,F,D]3/2 |[M:5/16] [D,A,]3/2[F,A,] | %19
[M:3/4][K:treble] [G,B,D][G,B,D] [G,B,D] [G,DG]2 [G,B,] | C,C, C, [C,C]3 |[M:1/8] [C,C] | %22
[M:13/16] [D,B,][D,B,]D,D,D,3/2D, |[M:5/8] G,-G,- G,3 |] %24
V:3
 x6 | x4[K:bass] x2 |[M:5/8] x5 |[M:1/8] G, |[M:3/4] z2 z2 z [D,A,][K:treble] | x3[K:bass] x3 | %6
[M:1/8] x |[M:3/4] z2 z2 z G, |[M:5/8] x5 |[M:1/8] [C,G,] |[M:3/4] x6 |[M:5/8][K:treble] x5 | %12
[M:1/8] x |[M:3/4][K:bass] x6 |[M:5/8][K:treble] x5 |[M:1/8] [G,B,] |[M:3/4][K:bass] x6 | %17
[M:9/16] x9/2 |[M:5/16] x5/2 |[M:3/4][K:treble] x6 | x6 |[M:1/8] x |[M:13/16] x13/2 |[M:5/8] x5 |] %24

